RASD/Images/SequenceDiagrams/Access_Reports_Data.svg

<svg version="1.1" xmlns="http://www.w3.org/2000/svg" xmlns:xlink="http://www.w3.org/1999/xlink" width="424" height="462"><defs/><g><g/><g/><g/><g/><g/><g><rect fill="white" stroke="none" x="0" y="0" width="424" height="462"/></g><g><text fill="black" stroke="none" font-family="sans-serif" font-size="16.5pt" font-style="normal" font-weight="normal" text-decoration="normal" x="114.94680334020182" y="24.50280495" text-anchor="start" dominant-baseline="alphabetic">Access reports data</text></g><g/><g><path fill="none" stroke="black" paint-order="fill stroke markers" d=" M 81.67601649999999 128.80307802049998 L 81.67601649999999 462.0412253405" stroke-miterlimit="10" stroke-width="1.3612669416666667" stroke-dasharray="12.565541,5.445067766666667"/><path fill="none" stroke="black" paint-order="fill stroke markers" d=" M 342.57176193333333 128.80307802049998 L 342.57176193333333 462.0412253405" stroke-miterlimit="10" stroke-width="1.3612669416666667" stroke-dasharray="12.565541,5.445067766666667"/></g><g><g><path fill="white" stroke="black" paint-order="fill stroke markers" d=" M 90.987082381 59.70516806150002 A 9.311065881 9.311065881 0 1 1 90.98707772546743 59.69585699717086 M 81.67601649999999 69.01623394250002 L 81.67601649999999 88.94518196850002 M 69.914670124 76.20372339450002 L 93.43736287599998 76.20372339450002 M 81.67601649999999 88.94518196850002 L 69.914670124 107.56731373050002 M 81.67601649999999 88.94518196850002 L 93.43736287599998 107.56731373050002" stroke-miterlimit="10" stroke-width="2.7769845610000004" stroke-dasharray=""/></g><g><g/><text fill="black" stroke="none" font-family="sans-serif" font-size="11pt" font-style="normal" font-weight="normal" text-decoration="normal" x="59.67601649999999" y="123.90251703050001" text-anchor="start" dominant-baseline="alphabetic">Officer</text></g><path fill="none" stroke="none"/><g><path fill="white" stroke="black" paint-order="fill stroke markers" d=" M 286.3480663528333 84.69802911050002 L 398.7954575138333 84.69802911050002 L 398.7954575138333 128.8030780205 L 286.3480663528333 128.8030780205 L 286.3480663528333 84.69802911050002 Z" stroke-miterlimit="10" stroke-width="2.613632528" stroke-dasharray=""/></g><g><g/><text fill="black" stroke="none" font-family="sans-serif" font-size="11pt" font-style="normal" font-weight="normal" text-decoration="normal" x="304.07176193333333" y="112.46787472049999" text-anchor="start" dominant-baseline="alphabetic">SafeStreets</text></g></g><g><path fill="white" stroke="black" paint-order="fill stroke markers" d=" M 73.50841485 136.97067967049998 L 89.84361814999998 136.97067967049998 L 89.84361814999998 445.7060220405 L 73.50841485 445.7060220405 L 73.50841485 136.97067967049998" stroke-miterlimit="10" stroke-width="1.3612669416666667" stroke-dasharray=""/><path fill="white" stroke="black" paint-order="fill stroke markers" d=" M 334.40416028333334 182.70924891049998 L 350.73936358333333 182.70924891049998 L 350.73936358333333 228.44781815049998 L 334.40416028333334 228.44781815049998 L 334.40416028333334 182.70924891049998" stroke-miterlimit="10" stroke-width="1.3612669416666667" stroke-dasharray=""/><path fill="white" stroke="black" paint-order="fill stroke markers" d=" M 334.40416028333334 318.2914363005 L 350.73936358333333 318.2914363005 L 350.73936358333333 380.3652088405 L 334.40416028333334 380.3652088405 L 334.40416028333334 318.2914363005" stroke-miterlimit="10" stroke-width="1.3612669416666667" stroke-dasharray=""/><g><g><rect fill="white" stroke="none" x="110.67360872166667" y="161.4734846205" width="202.90056099" height="21.23576429"/></g><text fill="black" stroke="none" font-family="sans-serif" font-size="11pt" font-style="normal" font-weight="normal" text-decoration="normal" x="113.12388921666667" y="176.17516759049997" text-anchor="start" dominant-baseline="alphabetic">Clicks "Consult reports" button</text></g><g><path fill="none" stroke="black" paint-order="fill stroke markers" d=" M 89.84361814999998 182.70924891049998 L 331.6816264 182.70924891049998" stroke-miterlimit="10" stroke-width="1.3612669416666667" stroke-dasharray=""/><g transform="translate(334.40416028333334,182.70924891049998) translate(-334.40416028333334,-182.70924891049998)"><path fill="black" stroke="none" paint-order="stroke fill markers" d=" M 320.79149086666666 175.90291420216664 L 334.40416028333334 182.70924891049998 L 320.79149086666666 189.51558361883332 Z"/></g></g><g><g><rect fill="white" stroke="none" x="111.67360872166667" y="207.2120538605" width="200.90056099" height="21.23576429"/></g><text fill="black" stroke="none" font-family="sans-serif" font-size="11pt" font-style="normal" font-weight="normal" text-decoration="normal" x="114.12388921666667" y="221.91373683049997" text-anchor="start" dominant-baseline="alphabetic">Prompts Consult reports page</text></g><g><path fill="none" stroke="black" paint-order="fill stroke markers" d=" M 334.40416028333334 228.44781815049998 L 92.56615203333331 228.44781815049998" stroke-miterlimit="10" stroke-width="1.3612669416666667" stroke-dasharray="6.53408132"/><g transform="translate(89.84361814999998,228.44781815049998) translate(-89.84361814999998,-228.44781815049998)"><path fill="black" stroke="none" paint-order="stroke fill markers" d=" M 103.45628756666665 221.64148344216665 L 89.84361814999998 228.44781815049998 L 103.45628756666665 235.25415285883332 Z"/></g></g><g><g><rect fill="white" stroke="none" x="126.17360872166667" y="297.05567201049996" width="171.90056099" height="21.23576429"/></g><text fill="black" stroke="none" font-family="sans-serif" font-size="11pt" font-style="normal" font-weight="normal" text-decoration="normal" x="128.62388921666667" y="311.75735498049994" text-anchor="start" dominant-baseline="alphabetic">Clicks on report photo link</text></g><g><path fill="none" stroke="black" paint-order="fill stroke markers" d=" M 89.84361814999998 318.2914363005 L 331.6816264 318.2914363005" stroke-miterlimit="10" stroke-width="1.3612669416666667" stroke-dasharray=""/><g transform="translate(334.40416028333334,318.2914363005) translate(-334.40416028333334,-318.2914363005)"><path fill="black" stroke="none" paint-order="stroke fill markers" d=" M 320.79149086666666 311.48510159216664 L 334.40416028333334 318.2914363005 L 320.79149086666666 325.0977710088333 Z"/></g></g><g><g><rect fill="white" stroke="none" x="109.17360872166667" y="342.79424125049997" width="194.90056099" height="21.23576429"/></g><g><rect fill="white" stroke="none" x="109.17360872166667" y="359.12944455049995" width="205.90056099" height="21.23576429"/></g><text fill="black" stroke="none" font-family="sans-serif" font-size="11pt" font-style="normal" font-weight="normal" text-decoration="normal" x="111.62388921666667" y="357.49592422049994" text-anchor="start" dominant-baseline="alphabetic">Prompts a popup with photos</text><text fill="black" stroke="none" font-family="sans-serif" font-size="11pt" font-style="normal" font-weight="normal" text-decoration="normal" x="111.62388921666667" y="373.83112752049993" text-anchor="start" dominant-baseline="alphabetic">attached to the selected record</text></g><g><path fill="none" stroke="black" paint-order="fill stroke markers" d=" M 334.40416028333334 380.3652088405 L 92.56615203333331 380.3652088405" stroke-miterlimit="10" stroke-width="1.3612669416666667" stroke-dasharray="6.53408132"/><g transform="translate(89.84361814999998,380.3652088405) translate(-89.84361814999998,-380.3652088405)"><path fill="black" stroke="none" paint-order="stroke fill markers" d=" M 103.45628756666665 373.55887413216664 L 89.84361814999998 380.3652088405 L 103.45628756666665 387.1715435488333 Z"/></g></g><g><g/><path fill="none" stroke="black" paint-order="fill stroke markers" d=" M 16.33520329999999 252.95062310049997 L 399.74497348333335 252.95062310049997 L 399.74497348333335 404.86801379049996 L 16.33520329999999 404.86801379049996 L 16.33520329999999 252.95062310049997 Z" stroke-miterlimit="10" stroke-width="2.3336004714285714" stroke-dasharray=""/><path fill="white" stroke="black" paint-order="fill stroke markers" d=" M 16.33520329999999 252.95062310049997 L 16.33520329999999 272.5528670605 L 73.0056099 272.5528670605 L 82.80673188 262.7517450805 L 82.80673188 252.95062310049997 L 16.33520329999999 252.95062310049997" stroke-miterlimit="10" stroke-width="2.3336004714285714" stroke-dasharray=""/><text fill="black" stroke="none" font-family="sans-serif" font-size="8.8pt" font-style="normal" font-weight="bold" text-decoration="normal" x="32.67040659999999" y="266.0187857405" text-anchor="start" dominant-baseline="alphabetic">loop</text></g></g><g/><g/></g></svg>

<?xml version="1.0" encoding="utf-8"?>
<!-- Generator: Adobe Illustrator 16.0.0, SVG Export Plug-In . SVG Version: 6.00 Build 0)  -->
<!DOCTYPE svg PUBLIC "-//W3C//DTD SVG 1.1//EN" "http://www.w3.org/Graphics/SVG/1.1/DTD/svg11.dtd">
<svg version="1.1" id="Layer_1" xmlns="http://www.w3.org/2000/svg" xmlns:xlink="http://www.w3.org/1999/xlink" x="0px" y="0px"
	 width="424px" height="462px" viewBox="0 0 424 462" enable-background="new 0 0 424 462" xml:space="preserve">
<g>
	<rect fill="#FFFFFF" width="424" height="462"/>
</g>
<g>
	<path fill="none" stroke="#000000" stroke-width="1.3613" stroke-miterlimit="10" stroke-dasharray="12.5655,5.4451" d="
		M81.676,128.803v333.238"/>
	<path fill="none" stroke="#000000" stroke-width="1.3613" stroke-miterlimit="10" stroke-dasharray="12.5655,5.4451" d="
		M342.571,128.803v333.238"/>
</g>
<g>
	<g>
		<path fill="#FFFFFF" stroke="#000000" stroke-width="2.777" stroke-miterlimit="10" d="M90.987,59.705
			c0.001,5.143-4.166,9.313-9.308,9.314c-5.143,0.002-9.313-4.166-9.314-9.308c-0.001-5.142,4.166-9.312,9.308-9.314
			c5.139-0.001,9.308,4.16,9.314,9.299 M81.676,69.016v19.929 M69.915,76.204h23.523 M81.676,88.945l-11.761,18.622 M81.676,88.945
			l11.762,18.622"/>
	</g>
	<g>
		<text transform="matrix(1 0 0 1 59.6758 123.9023)" font-family="'ArialMT'" font-size="11">Officer</text>
	</g>
	<path d="M0,0"/>
	<g>
		<path fill="#FFFFFF" stroke="#000000" stroke-width="2.6136" stroke-miterlimit="10" d="M286.348,84.698h112.448v44.105H286.348
			V84.698z"/>
	</g>
	<g>
		<text transform="matrix(1 0 0 1 304.0723 112.4678)" font-family="'ArialMT'" font-size="11">SafeStreets</text>
	</g>
</g>
<g>
	<path fill="#FFFFFF" stroke="#000000" stroke-width="1.3613" stroke-miterlimit="10" d="M73.508,136.971h16.335v308.735H73.508
		V136.971"/>
	<path fill="#FFFFFF" stroke="#000000" stroke-width="1.3613" stroke-miterlimit="10" d="M334.404,182.709h16.335v45.739h-16.335
		V182.709"/>
	<path fill="#FFFFFF" stroke="#000000" stroke-width="1.3613" stroke-miterlimit="10" d="M334.404,318.291h16.335v62.074h-16.335
		V318.291"/>
	<g>
		<g>
			<rect x="110.674" y="161.474" fill="#FFFFFF" width="202.9" height="21.235"/>
		</g>
		<text transform="matrix(1 0 0 1 113.124 176.1748)" font-family="'ArialMT'" font-size="11">Clicks &quot;Consult reports&quot; button</text>
	</g>
	<g>
		<path fill="none" stroke="#000000" stroke-width="1.3613" stroke-miterlimit="10" d="M89.844,182.709h241.838"/>
		<g transform="translate(334.40416028333334,182.70924891049998) translate(-334.40416028333334,-182.70924891049998)">
			<path d="M320.791,175.903l13.613,6.806l-13.613,6.807V175.903z"/>
		</g>
	</g>
	<g>
		<g>
			<rect x="111.674" y="207.212" fill="#FFFFFF" width="200.9" height="21.236"/>
		</g>
		<text transform="matrix(1 0 0 1 114.124 221.9141)" font-family="'ArialMT'" font-size="11">Prompts Consult reports page</text>
	</g>
	<g>
		<path fill="none" stroke="#000000" stroke-width="1.3613" stroke-miterlimit="10" stroke-dasharray="6.5341" d="M334.404,228.448
			H92.566"/>
		<g transform="translate(89.84361814999998,228.44781815049998) translate(-89.84361814999998,-228.44781815049998)">
			<path d="M103.456,221.642l-13.612,6.806l13.612,6.806V221.642z"/>
		</g>
	</g>
	<g>
		<g>
			<rect x="126.174" y="297.056" fill="#FFFFFF" width="171.9" height="21.235"/>
		</g>
		<text transform="matrix(1 0 0 1 128.624 311.7578)" font-family="'ArialMT'" font-size="11">Clicks on report photo link</text>
	</g>
	<g>
		<path fill="none" stroke="#000000" stroke-width="1.3613" stroke-miterlimit="10" d="M89.844,318.291h241.838"/>
		<g transform="translate(334.40416028333334,318.2914363005) translate(-334.40416028333334,-318.2914363005)">
			<path d="M320.791,311.485l13.613,6.806l-13.613,6.807V311.485z"/>
		</g>
	</g>
	<g>
		<g>
			<rect x="109.174" y="342.795" fill="#FFFFFF" width="194.9" height="21.235"/>
		</g>
		<g>
			<rect x="109.174" y="359.129" fill="#FFFFFF" width="205.9" height="21.236"/>
		</g>
		<text transform="matrix(1 0 0 1 111.624 357.4961)" font-family="'ArialMT'" font-size="11">Prompts a popup with photos</text>
		<text transform="matrix(1 0 0 1 111.624 373.8311)" font-family="'ArialMT'" font-size="11">attached to the selected record</text>
	</g>
	<g>
		<path fill="none" stroke="#000000" stroke-width="1.3613" stroke-miterlimit="10" stroke-dasharray="6.5341" d="M334.404,380.365
			H92.566"/>
		<g transform="translate(89.84361814999998,380.3652088405) translate(-89.84361814999998,-380.3652088405)">
			<path d="M103.456,373.559l-13.612,6.807l13.612,6.807V373.559z"/>
		</g>
	</g>
	<g>
		<path fill="none" stroke="#000000" stroke-width="2.3336" stroke-miterlimit="10" d="M16.335,252.951h383.41v151.917H16.335
			V252.951z"/>
		<path fill="#FFFFFF" stroke="#000000" stroke-width="2.3336" stroke-miterlimit="10" d="M16.335,252.951v19.602h56.67l9.801-9.801
			v-9.801H16.335"/>
		<text transform="matrix(1 0 0 1 32.6704 266.0186)" font-family="'Arial-BoldMT'" font-size="8.8">loop</text>
	</g>
</g>
</svg>
